X: 022220
T: Burns' Farewell
S: Colclough Collection
L: 1/8
M: 4/4
R: hornpipe
Q: 1/4=160
K: C
ed |c2A2A2 GA|c2c2d2 cd |e2e2 efed |e2A2G2 ed|
c2A2A2 GA|c2c2d2 cd |e2a2 gede |c2A2A2 :|
ef |g2g2 gbc'a |g2g2g2 de|f2e2d2c2|e2A2G2 ed|
c2A2A2 GA|c2c2d2 cd|e2a2 gede |c2A2A2 :|
